web/ui/src/components/theme/input/svgs/user.svg

<svg height="24" viewBox="0 0 24 24" width="24" xmlns="http://www.w3.org/2000/svg"><g fill="none"><path d="m0 0h24v24h-24z" fill="#000" opacity="0"/><path d="m19.4784 8.2896c0-4.1328-3.3072-7.44-7.44-7.44s-7.44 3.3072-7.44 7.44c0 2.808 1.488 5.208 3.8016 6.4464-3.1344 1.2432-5.5344 3.9696-6.192 7.44-.0816.4128.1632.9072.6624.9936h.1632c.4128 0 .744-.2496.8256-.6624.744-3.8832 4.1328-6.696 8.0976-6.7776h.1632c4.0512 0 7.3584-3.3072 7.3584-7.44zm-13.224 0c0-3.2208 2.5632-5.784 5.784-5.784s5.784 2.5632 5.784 5.784c0 3.1392-2.5632 5.7024-5.7024 5.784h-.2496c-3.1344-.0816-5.616-2.64-5.616-5.784zm11.2416 7.5216c-.4128-.2496-.9072-.1632-1.1568.2496s-.1632.9072.2496 1.1568c1.9008 1.32 3.2208 3.1392 3.6384 5.2896.0816.4128.4128.6624.8256.6624h.1632c.4128-.0816.744-.4944.6624-.9936-.4992-2.5632-2.0688-4.7952-4.3824-6.3648z" fill="#999"/></g></svg>

<?xml version="1.0" encoding="UTF-8"?>
<svg width="24px" height="24px" viewBox="0 0 24 24" version="1.1" xmlns="http://www.w3.org/2000/svg" xmlns:xlink="http://www.w3.org/1999/xlink">
    <title>login_icon_user_default</title>
    <g id="页面-1" stroke="none" stroke-width="1" fill="none" fill-rule="evenodd">
        <g id="系统设计规范" transform="translate(-1029.000000, -5358.000000)" fill-rule="nonzero">
            <g id="login_icon_user_default" transform="translate(1029.000000, 5358.000000)">
                <rect id="矩形" fill="#000000" opacity="0" x="0" y="0" width="24" height="24"></rect>
                <path d="M19.4784,8.2896 C19.4784,4.1568 16.1712,0.8496 12.0384,0.8496 C7.9056,0.8496 4.5984,4.1568 4.5984,8.2896 C4.5984,11.0976 6.0864,13.4976 8.4,14.736 C5.2656,15.9792 2.8656,18.7056 2.208,22.176 C2.1264,22.5888 2.3712,23.0832 2.8704,23.1696 L3.0336,23.1696 C3.4464,23.1696 3.7776,22.92 3.8592,22.5072 C4.6032,18.624 7.992,15.8112 11.9568,15.7296 L12.12,15.7296 C16.1712,15.7296 19.4784,12.4224 19.4784,8.2896 Z M6.2544,8.2896 C6.2544,5.0688 8.8176,2.5056 12.0384,2.5056 C15.2592,2.5056 17.8224,5.0688 17.8224,8.2896 C17.8224,11.4288 15.2592,13.992 12.12,14.0736 L11.8704,14.0736 C8.736,13.992 6.2544,11.4336 6.2544,8.2896 L6.2544,8.2896 Z M17.496,15.8112 C17.0832,15.5616 16.5888,15.648 16.3392,16.0608 C16.0896,16.4736 16.176,16.968 16.5888,17.2176 C18.4896,18.5376 19.8096,20.3568 20.2272,22.5072 C20.3088,22.92 20.64,23.1696 21.0528,23.1696 L21.216,23.1696 C21.6288,23.088 21.96,22.6752 21.8784,22.176 C21.3792,19.6128 19.8096,17.3808 17.496,15.8112 L17.496,15.8112 Z" id="形状" fill="#999999"></path>
            </g>
        </g>
    </g>
</svg>
